X: 5780
T: Caisleán An Óir
R: hornpipe
M: 4/4
K: Gmixolydian
|Bc|dGG^F G2 Bc|(3ddd de f2 ga|gfdc AdcA|GAGE FDCF|
DGG^F G2 Bc|(3ddd de f2 ga|gfdc AdcA|(3GGG G^F G2:|:
Bc|dgga _b2 ag|gfde f2 ga|gfdc AdcA|GAGE FDCF|
DGG^F G2 Bc|(3ddd de f2 ga|gfdc AdcA|(3GGG G^F G2:|

